raw/spot/spot-network-error.svg

<svg width="80" height="80" viewBox="0 0 80 80" fill="none" xmlns="http://www.w3.org/2000/svg">
<path fill-rule="evenodd" clip-rule="evenodd" d="M10.5908 22.1986C17.2619 17.6209 27.1888 13 40.0187 13C52.8449 13 62.7616 17.6049 69.4254 22.1695C72.7548 24.4502 75.2964 26.7357 77.0225 28.4711C77.4881 28.9393 77.8958 29.3688 78.245 29.7492L70.9393 36.5785C70.6646 36.2773 70.3286 35.9214 69.9323 35.523C68.5647 34.148 66.4991 32.2862 63.7741 30.4196C58.329 26.6897 50.3479 23 40.0187 23C29.6931 23 21.7044 26.7004 16.2488 30.4441C13.5189 32.3173 11.4483 34.186 10.0769 35.5663C9.68928 35.9564 9.35916 36.3059 9.08737 36.6034L1.78174 29.7742C2.12632 29.3992 2.52688 28.9772 2.98288 28.5182C4.71176 26.7781 7.25734 24.4861 10.5908 22.1986ZM20.4339 47.2099L13.124 40.3768C13.4507 40.0468 13.8736 39.636 14.3892 39.1683C15.6456 38.0284 17.4722 36.5322 19.817 35.0394C24.4932 32.0623 31.3927 29 39.9948 29C48.5987 29 55.5027 32.0683 60.1819 35.05C62.5284 36.5452 64.3566 38.0437 65.6142 39.1851C66.1241 39.648 66.5435 40.0551 66.8688 40.3835L59.5589 47.2167C59.377 47.0385 59.1547 46.8271 58.8933 46.5898C57.9749 45.7563 56.5941 44.6215 54.808 43.4833C51.2221 41.1983 46.1669 39 39.9948 39C33.8208 39 28.7687 41.1949 25.1875 43.4749C23.4036 44.6106 22.0249 45.743 21.1083 46.5746C20.8424 46.8158 20.6172 47.0301 20.4339 47.2099ZM44.718 61.0897L40 65.5L35.1288 60.9465C36.2824 59.6312 37.9755 58.8008 39.8625 58.8008C41.8171 58.8008 43.5636 59.6917 44.718 61.0897ZM28.7733 47.5098C31.3775 45.9803 35.2291 44.3984 40.0248 44.3984C44.8087 44.3984 48.6443 45.9584 51.2417 47.4742C52.5444 48.2344 53.5657 49.0003 54.2806 49.5951C54.6393 49.8937 54.9251 50.1526 55.1347 50.3512C55.2396 50.4506 55.3259 50.5353 55.393 50.6026C55.4266 50.6363 55.4554 50.6657 55.4795 50.6905L55.512 50.7242L55.5256 50.7384L55.5317 50.7448L55.5346 50.7479C55.536 50.7494 55.5374 50.7508 51.905 54.1867C48.2726 57.6227 48.2739 57.6241 48.2752 57.6255L48.2778 57.6282L48.2827 57.6333L48.2913 57.6423L48.304 57.6555L48.3105 57.6622L48.2928 57.6448C48.2839 57.6362 48.2721 57.6248 48.2573 57.6108C48.1905 57.5475 48.065 57.4323 47.8843 57.282C47.5201 56.979 46.9498 56.5478 46.2013 56.111C44.6962 55.2327 42.5917 54.3984 40.0248 54.3984C37.4695 54.3984 35.3585 55.2393 33.8378 56.1325C33.0824 56.5762 32.505 57.0146 32.135 57.3237C31.9514 57.4771 31.8234 57.5949 31.7546 57.6602C31.7204 57.6928 31.7013 57.7119 31.6978 57.7154L31.6974 57.7158C31.698 57.7152 31.7004 57.7128 31.7046 57.7085L31.717 57.6956L31.7254 57.6867L31.7302 57.6816L31.7328 57.679C31.7341 57.6776 31.7354 57.6762 28.0996 54.2438C24.4638 50.8115 24.4651 50.8101 24.4665 50.8086L24.4694 50.8056L24.4754 50.7992L24.4889 50.7851L24.5213 50.7514C24.5453 50.7267 24.5741 50.6972 24.6077 50.6635C24.6748 50.596 24.7612 50.511 24.8663 50.411C25.0764 50.2114 25.3632 49.9506 25.7233 49.6497C26.4407 49.0504 27.4663 48.2775 28.7733 47.5098Z" fill="#E3E7F5"/>
<path d="M61 69C67.6274 69 73 63.6274 73 57C73 50.3726 67.6274 45 61 45C54.3726 45 49 50.3726 49 57C49 63.6274 54.3726 69 61 69Z" stroke="#0066FF" stroke-width="3.5"/>
<path fill-rule="evenodd" clip-rule="evenodd" d="M59.55 50C59.1455 50 58.8256 50.3425 58.8532 50.7461L59.238 56.3681C59.2408 56.4083 59.247 56.4483 59.2567 56.4875L59.9913 59.4687C60.0681 59.7807 60.348 60 60.6693 60H61.335C61.6563 60 61.9362 59.7807 62.0131 59.4687L62.7477 56.4875C62.7573 56.4483 62.7635 56.4083 62.7663 56.3681L63.1511 50.7461C63.1787 50.3425 62.8588 50 62.4544 50H59.55ZM60.1997 60.9961C59.814 60.9961 59.5014 61.3088 59.5014 61.6945V63.2977C59.5014 63.6834 59.8141 63.9961 60.1997 63.9961H61.8071C62.1928 63.9961 62.5055 63.6834 62.5055 63.2977V61.6945C62.5055 61.3088 62.1928 60.9961 61.8071 60.9961H60.1997Z" fill="#0066FF"/>
</svg>

<svg width="80" height="80" viewBox="0 0 80 80" fill="none" xmlns="http://www.w3.org/2000/svg"><path fill-rule="evenodd" clip-rule="evenodd" d="M10.59 22.199C17.263 17.62 27.19 13 40.02 13c12.826 0 22.743 4.605 29.406 9.17a53.116 53.116 0 0 1 7.597 6.301c.466.468.874.898 1.223 1.278l-7.306 6.83c-.274-.302-.61-.658-1.007-1.056a43.113 43.113 0 0 0-6.158-5.103C58.33 26.69 50.348 23 40.02 23c-10.326 0-18.315 3.7-23.77 7.444a43.299 43.299 0 0 0-6.172 5.122c-.388.39-.718.74-.99 1.037l-7.305-6.829c.344-.375.745-.797 1.2-1.256a53.303 53.303 0 0 1 7.609-6.32zm9.844 25.01-7.31-6.832c.327-.33.75-.741 1.265-1.209a40.499 40.499 0 0 1 5.428-4.129C24.493 32.062 31.393 29 39.995 29c8.604 0 15.508 3.068 20.187 6.05a40.593 40.593 0 0 1 5.432 4.135c.51.463.93.87 1.255 1.198l-7.31 6.834c-.182-.178-.404-.39-.666-.627a30.608 30.608 0 0 0-4.085-3.107C51.222 41.198 46.167 39 39.995 39c-6.174 0-11.226 2.195-14.807 4.475a30.506 30.506 0 0 0-4.08 3.1c-.266.24-.49.455-.674.635zm24.284 13.88L40 65.5l-4.871-4.553a6.28 6.28 0 0 1 4.733-2.146c1.955 0 3.702.89 4.856 2.289zM28.773 47.51c2.605-1.529 6.456-3.11 11.252-3.11 4.784 0 8.62 1.56 11.217 3.075a22.528 22.528 0 0 1 3.039 2.121 17.863 17.863 0 0 1 1.112 1.008l.087.087.032.034.014.014.006.007.003.003c.001.001.002.003-3.63 3.439-3.632 3.436-3.631 3.437-3.63 3.439l.003.002.005.005.008.01.013.013.006.006-.017-.017a7.818 7.818 0 0 0-.408-.363 12.537 12.537 0 0 0-1.684-1.171c-1.505-.878-3.61-1.713-6.176-1.713-2.556 0-4.666.841-6.187 1.734-.756.444-1.333.883-1.703 1.192a8.148 8.148 0 0 0-.437.391l.007-.007.012-.012.008-.01.005-.004.003-.003c.001-.001.002-.003-3.633-3.435-3.636-3.432-3.635-3.434-3.634-3.435l.003-.003.006-.007.014-.014.032-.034a9.362 9.362 0 0 1 .345-.34c.21-.2.497-.46.857-.761.718-.6 1.743-1.372 3.05-2.14z" fill="#E3E7F5"/><path d="M61 69c6.627 0 12-5.373 12-12s-5.373-12-12-12-12 5.373-12 12 5.373 12 12 12z" stroke="#06F" stroke-width="3.5"/><path fill-rule="evenodd" clip-rule="evenodd" d="M59.55 50a.698.698 0 0 0-.697.746l.385 5.622a.7.7 0 0 0 .019.12l.734 2.98a.698.698 0 0 0 .678.532h.666c.321 0 .601-.22.678-.531l.735-2.982a.71.71 0 0 0 .018-.119l.385-5.622a.698.698 0 0 0-.697-.746H59.55zm.65 10.996a.698.698 0 0 0-.699.698v1.604c0 .385.313.698.699.698h1.607a.698.698 0 0 0 .698-.698v-1.604a.698.698 0 0 0-.698-.698H60.2z" fill="#06F"/></svg>
